X:1
T:Jesus Was a Child Like Me
T:Jesus Was a Child Like Me
T:William Howard Doane
T:Frances Jane (Fanny) Crosby, 1914
T:Public Domain Courtesy of the Cyber Hymnal™
C:William Howard Doane
Z:Public Domain
Z:Courtesy of the Cyber Hymnal™
%%score ( 1 2 ) ( 3 4 )
L:1/8
Q:1/4=85
M:2/4
K:D
V:1 treble 
V:2 treble 
V:3 bass 
V:4 bass 
V:1
 D | [DF][DF] [DF]>[EG] | [GB][FA] [DF][DF] | [EG][EA] [DF][DG] | [CE]3 [CE] | [DF][FA] [DF]>[FA] | %6
w: 1.~Once|Je- sus was a|child like me, But|O, so kind and|true; His|ev- er watch- ful|
w: 2.~He|played up- on the|vil- lage street, In|such a plea- sant|way; And|ran with glad and|
w: 3.~I|want to be His|lit- tle child, And|more like Him to|grow; And|ev- er truth- ful,|
w: 4.~And|now to Je- sus|I will pray, To|par- don me from|sin; And|if I serve Him|
 [GB][Ac] !fermata![Bd][GB] | [FA]>[DF] [CG][CE] | D3 ||"^Refrain" [FA] | [Gc][Gc] [Gc]>[GB] | %11
w: eye can see The|ve- ry things I|do.|||
w: will- ing feet, His|par- ents to o-|bey.|Yes,|Je- sus was a|
w: good and mild, Be-|cause He loves me|so.|||
w: ev- ery day, His|bless- ing I shall|win.|||
 [FA][DF] [FA][FA] | [GB][FA] [DF]D | [CE]3 [CE] | [DF][FA] [Fd]>[Ac] | %15
w: ||||
w: child like me, But|O, so pure and|true; My|bless- èd Sav- ior|
w: ||||
w: ||||
 [Ac][GB] !fermata![GB][GB] | [FA]>[DF] [CG][CE] | D3 |] %18
w: |||
w: He will be, If|I but love Him,|too.|
w: |||
w: |||
V:2
 D | x4 | x4 | x4 | x4 | x4 | x4 | x4 | D3 || x | x4 | x4 | x3 D | x4 | x4 | x4 | x4 | D3 |] %18
V:3
 [D,F,] | [D,A,][D,A,] [D,A,]>[D,A,] | [D,D][D,D] [D,A,][D,A,] | [C,A,][A,,C] [D,D][G,,B,] | %4
 [A,,A,]3 [A,,A,] | [D,A,][D,D] [D,A,]>[D,D] | [G,D][G,D] !fermata![G,D][G,D] | %7
 [A,D]>A, [A,,E,][A,,G,] | [D,F,]3 || [D,A,] | [A,,E][A,E] [A,E]>[A,,C] | [D,D][D,A,] [D,D][D,D] | %12
 [D,D][D,D] [D,A,][F,A,] | A,3 [A,,A,] | [D,A,][D,D] [D,A,]>[F,D] | [G,D][G,D] [G,D][G,,D] | %16
 [A,,D]>[A,,A,] [G,,E,][E,G,] | [D,F,]3 |] %18
V:4
 x | x4 | x4 | x4 | x4 | x4 | x4 | x3/2 A,/ x2 | x3 || x | x4 | x4 | x4 | A,3 x | x4 | x4 | x4 | %17
 x3 |] %18

